res/skins/LateNight/buttons/btn_arrow_right.svg

<svg id="svg25537" width="26" height="26" version="1.1" xmlns="http://www.w3.org/2000/svg"><defs id="defs25539"><linearGradient id="linearGradient7413" x1="13" x2="13" y1="1027.4" y2="1049.4" gradientTransform="translate(0 -1026.4)" gradientUnits="userSpaceOnUse"><stop id="stop3803-7-85" stop-color="#242424" offset="0"/><stop id="stop3805-5-74" stop-color="#101010" offset="1"/></linearGradient></defs><rect id="rect3029-6" x="2" y="2" width="24" height="24" rx="2" ry="2" color="#000000" fill="#060606" opacity=".62085"/><rect id="rect3029-6-6" x="1" y=".99998" width="24" height="24" rx="2" ry="2" color="#000000" opacity=".72"/><rect id="rect3029" x=".5" y=".49998" width="23" height="23" rx="2" ry="2" color="#000000" fill="url(#linearGradient7413)"/><path id="path9792-0-0" d="m9 12h4v-4l5 5.5-5 5.5v-4h-4v-3" fill="#060606"/><path id="path9792-9" d="m8 11h4v-4l5 5.5-5 5.5v-4h-4v-3" fill="#bfbfbf"/><path id="rect3029-96-0" d="m2 0c-1.0994 0-2 0.9006-2 2v20c0 1.0994 0.90065 2 2 2h20c1.0994 0 2-0.9006 2-2v-20c0-1.0994-0.90065-2-2-2zm0.3 1h19.4c0.56265 0 1.3 0.7374 1.3 1.3v19.4c0 0.5626-0.73735 1.3-1.3 1.3h-19.4c-0.56265 0-1.3-0.7374-1.3-1.3v-19.4c0-0.5626 0.73735-1.3 1.3-1.3z" color="#000000" fill="#585858" style="block-progression:tb;text-indent:0;text-transform:none"/></svg>

<?xml version="1.0" encoding="UTF-8" standalone="no"?>
<!-- Created with Inkscape (http://www.inkscape.org/) -->

<svg
   xmlns:dc="http://purl.org/dc/elements/1.1/"
   xmlns:cc="http://creativecommons.org/ns#"
   xmlns:rdf="http://www.w3.org/1999/02/22-rdf-syntax-ns#"
   xmlns:svg="http://www.w3.org/2000/svg"
   xmlns="http://www.w3.org/2000/svg"
   xmlns:xlink="http://www.w3.org/1999/xlink"
   version="1.1"
   width="26"
   height="26"
   id="svg25537">
  <defs
     id="defs25539">
    <linearGradient
       x1="15"
       y1="1049.3622"
       x2="15"
       y2="1027.3622"
       id="linearGradient25229"
       xlink:href="#linearGradient3801-6-9-0"
       gradientUnits="userSpaceOnUse"
       gradientTransform="translate(0,-1026.3622)" />
    <linearGradient
       id="linearGradient3801-6-9-0">
      <stop
         id="stop3803-7-1-9"
         style="stop-color:#aa1112;stop-opacity:1"
         offset="0" />
      <stop
         id="stop4329-4"
         style="stop-color:#b60607;stop-opacity:1"
         offset="0.28" />
      <stop
         id="stop3805-5-28-5"
         style="stop-color:#760607;stop-opacity:1"
         offset="1" />
    </linearGradient>
    <linearGradient
       x1="15"
       y1="1049.3622"
       x2="15"
       y2="1027.3622"
       id="linearGradient4370"
       xlink:href="#linearGradient3801-6-9-0-1"
       gradientUnits="userSpaceOnUse"
       gradientTransform="translate(0,-1026.3622)" />
    <linearGradient
       id="linearGradient3801-6-9-0-1">
      <stop
         id="stop3803-7-1-9-5"
         style="stop-color:#aa1112;stop-opacity:1"
         offset="0" />
      <stop
         id="stop4329-4-9"
         style="stop-color:#b60607;stop-opacity:1"
         offset="0.28" />
      <stop
         id="stop3805-5-28-5-7"
         style="stop-color:#760607;stop-opacity:1"
         offset="1" />
    </linearGradient>
    <linearGradient
       x1="13"
       y1="1027.3622"
       x2="13"
       y2="1049.3622"
       id="linearGradient3807-3"
       xlink:href="#linearGradient3801-6"
       gradientUnits="userSpaceOnUse"
       gradientTransform="translate(0,-1026.3622)" />
    <linearGradient
       id="linearGradient3801-6">
      <stop
         id="stop3803-7"
         style="stop-color:#242424;stop-opacity:1"
         offset="0" />
      <stop
         id="stop3805-5"
         style="stop-color:#101010;stop-opacity:1"
         offset="1" />
    </linearGradient>
    <linearGradient
       x1="15"
       y1="1049.3622"
       x2="15"
       y2="1027.3622"
       id="linearGradient4370-6"
       xlink:href="#linearGradient3801-6-9-0-7"
       gradientUnits="userSpaceOnUse"
       gradientTransform="translate(0,-1026.3622)" />
    <linearGradient
       id="linearGradient3801-6-9-0-7">
      <stop
         id="stop3803-7-1-9-3"
         style="stop-color:#aa1112;stop-opacity:1"
         offset="0" />
      <stop
         id="stop4329-4-6"
         style="stop-color:#b60607;stop-opacity:1"
         offset="0.28" />
      <stop
         id="stop3805-5-28-5-5"
         style="stop-color:#760607;stop-opacity:1"
         offset="1" />
    </linearGradient>
    <linearGradient
       x1="15"
       y1="1049.3622"
       x2="15"
       y2="1027.3622"
       id="linearGradient14755"
       xlink:href="#linearGradient3801-6-9-0-6"
       gradientUnits="userSpaceOnUse"
       gradientTransform="translate(0,-1026.3622)" />
    <linearGradient
       id="linearGradient3801-6-9-0-6">
      <stop
         id="stop3803-7-1-9-39"
         style="stop-color:#aa1112;stop-opacity:1"
         offset="0" />
      <stop
         id="stop4329-4-4"
         style="stop-color:#b60607;stop-opacity:1"
         offset="0.28" />
      <stop
         id="stop3805-5-28-5-8"
         style="stop-color:#760607;stop-opacity:1"
         offset="1" />
    </linearGradient>
    <linearGradient
       x1="15"
       y1="1049.3622"
       x2="15"
       y2="1027.3622"
       id="linearGradient14408"
       xlink:href="#linearGradient3801-6-9-0-12"
       gradientUnits="userSpaceOnUse"
       gradientTransform="translate(0,-1026.3622)" />
    <linearGradient
       id="linearGradient3801-6-9-0-12">
      <stop
         id="stop3803-7-1-9-9"
         style="stop-color:#aa1112;stop-opacity:1"
         offset="0" />
      <stop
         id="stop4329-4-3"
         style="stop-color:#b60607;stop-opacity:1"
         offset="0.28" />
      <stop
         id="stop3805-5-28-5-9"
         style="stop-color:#760607;stop-opacity:1"
         offset="1" />
    </linearGradient>
    <linearGradient
       x1="15"
       y1="1049.3622"
       x2="15"
       y2="1027.3622"
       id="linearGradient4370-0"
       xlink:href="#linearGradient3801-6-9-0-8"
       gradientUnits="userSpaceOnUse"
       gradientTransform="translate(0,-1026.3622)" />
    <linearGradient
       id="linearGradient3801-6-9-0-8">
      <stop
         id="stop3803-7-1-9-8"
         style="stop-color:#aa1112;stop-opacity:1"
         offset="0" />
      <stop
         id="stop4329-4-5"
         style="stop-color:#b60607;stop-opacity:1"
         offset="0.28" />
      <stop
         id="stop3805-5-28-5-0"
         style="stop-color:#760607;stop-opacity:1"
         offset="1" />
    </linearGradient>
    <linearGradient
       x1="15"
       y1="1049.3622"
       x2="15"
       y2="1027.3622"
       id="linearGradient4370-9"
       xlink:href="#linearGradient3801-6-9-0-63"
       gradientUnits="userSpaceOnUse"
       gradientTransform="translate(0,-1026.3622)" />
    <linearGradient
       id="linearGradient3801-6-9-0-63">
      <stop
         id="stop3803-7-1-9-85"
         style="stop-color:#aa1112;stop-opacity:1"
         offset="0" />
      <stop
         id="stop4329-4-61"
         style="stop-color:#b60607;stop-opacity:1"
         offset="0.28" />
      <stop
         id="stop3805-5-28-5-1"
         style="stop-color:#760607;stop-opacity:1"
         offset="1" />
    </linearGradient>
    <linearGradient
       x1="11"
       y1="1027.3622"
       x2="11"
       y2="1049.3622"
       id="linearGradient4650"
       xlink:href="#linearGradient3801-6-9-9"
       gradientUnits="userSpaceOnUse"
       gradientTransform="translate(0,-1050.3622)" />
    <linearGradient
       id="linearGradient3801-6-9-9">
      <stop
         id="stop3803-7-1-95"
         style="stop-color:#ce0e0e;stop-opacity:1"
         offset="0" />
      <stop
         id="stop4329-2"
         style="stop-color:#dd0000;stop-opacity:1"
         offset="0.28" />
      <stop
         id="stop3805-5-28-1"
         style="stop-color:#8d0000;stop-opacity:1"
         offset="1" />
    </linearGradient>
    <linearGradient
       x1="15"
       y1="1049.3622"
       x2="15"
       y2="1027.3622"
       id="linearGradient3878"
       xlink:href="#linearGradient3801-6-5"
       gradientUnits="userSpaceOnUse"
       gradientTransform="translate(0,-1026.3622)" />
    <linearGradient
       id="linearGradient3801-6-5">
      <stop
         id="stop3803-7-6"
         style="stop-color:#222222;stop-opacity:1"
         offset="0" />
      <stop
         id="stop3805-5-2"
         style="stop-color:#131516;stop-opacity:1"
         offset="1" />
    </linearGradient>
    <linearGradient
       x1="13"
       y1="1027.3622"
       x2="13"
       y2="1049.3622"
       id="linearGradient3807-3-5"
       xlink:href="#linearGradient3801-6-9"
       gradientUnits="userSpaceOnUse"
       gradientTransform="translate(0,-1026.3622)" />
    <linearGradient
       id="linearGradient3801-6-9">
      <stop
         id="stop3803-7-8"
         style="stop-color:#242424;stop-opacity:1"
         offset="0" />
      <stop
         id="stop3805-5-4"
         style="stop-color:#101010;stop-opacity:1"
         offset="1" />
    </linearGradient>
    <linearGradient
       x1="13"
       y1="1027.3622"
       x2="13"
       y2="1049.3622"
       id="linearGradient3807-3-1"
       xlink:href="#linearGradient3801-6-0"
       gradientUnits="userSpaceOnUse"
       gradientTransform="translate(0,-1026.3622)" />
    <linearGradient
       id="linearGradient3801-6-0">
      <stop
         id="stop3803-7-3"
         style="stop-color:#242424;stop-opacity:1"
         offset="0" />
      <stop
         id="stop3805-5-0"
         style="stop-color:#101010;stop-opacity:1"
         offset="1" />
    </linearGradient>
    <linearGradient
       x1="13"
       y1="1027.3622"
       x2="13"
       y2="1049.3622"
       id="linearGradient3807-3-4"
       xlink:href="#linearGradient3801-6-4"
       gradientUnits="userSpaceOnUse"
       gradientTransform="translate(0,-1026.3622)" />
    <linearGradient
       id="linearGradient3801-6-4">
      <stop
         id="stop3803-7-4"
         style="stop-color:#242424;stop-opacity:1"
         offset="0" />
      <stop
         id="stop3805-5-7"
         style="stop-color:#101010;stop-opacity:1"
         offset="1" />
    </linearGradient>
    <linearGradient
       x1="13"
       y1="1027.3622"
       x2="13"
       y2="1049.3622"
       id="linearGradient14816"
       xlink:href="#linearGradient3801-6-96"
       gradientUnits="userSpaceOnUse"
       gradientTransform="translate(0,-1026.3622)" />
    <linearGradient
       id="linearGradient3801-6-96">
      <stop
         id="stop3803-7-2"
         style="stop-color:#242424;stop-opacity:1"
         offset="0" />
      <stop
         id="stop3805-5-1"
         style="stop-color:#101010;stop-opacity:1"
         offset="1" />
    </linearGradient>
    <linearGradient
       x1="13"
       y1="1027.4"
       x2="13"
       y2="1049.4"
       id="linearGradient15164"
       gradientUnits="userSpaceOnUse">
      <stop
         id="stop21798"
         style="stop-color:#242424;stop-opacity:1"
         offset="0" />
      <stop
         id="stop21800"
         style="stop-color:#101010;stop-opacity:1"
         offset="1" />
    </linearGradient>
    <linearGradient
       x1="13"
       y1="1027.3622"
       x2="13"
       y2="1049.3622"
       id="linearGradient32211"
       xlink:href="#linearGradient3801-6-7"
       gradientUnits="userSpaceOnUse" />
    <linearGradient
       id="linearGradient3801-6-7">
      <stop
         id="stop3803-7-85"
         style="stop-color:#242424;stop-opacity:1"
         offset="0" />
      <stop
         id="stop3805-5-74"
         style="stop-color:#101010;stop-opacity:1"
         offset="1" />
    </linearGradient>
    <linearGradient
       x1="13"
       y1="1027.3622"
       x2="13"
       y2="1049.3622"
       id="linearGradient7413"
       xlink:href="#linearGradient3801-6-7"
       gradientUnits="userSpaceOnUse"
       gradientTransform="translate(0,-1026.3622)" />
  </defs>
  <metadata
     id="metadata25542">
    <rdf:RDF>
      <cc:Work
         rdf:about="">
        <dc:format>image/svg+xml</dc:format>
        <dc:type
           rdf:resource="http://purl.org/dc/dcmitype/StillImage" />
        <dc:title></dc:title>
      </cc:Work>
    </rdf:RDF>
  </metadata>
  <rect
     width="24"
     height="24"
     rx="2"
     ry="2"
     x="2"
     y="1.9999826"
     id="rect3029-6"
     style="opacity:0.62085308;color:#000000;fill:#060606;fill-opacity:1;fill-rule:nonzero;stroke:none;stroke-width:1;marker:none;visibility:visible;display:inline;overflow:visible;enable-background:accumulate" />
  <rect
     width="24"
     height="24"
     rx="2"
     ry="2"
     x="1"
     y="0.9999826"
     id="rect3029-6-6"
     style="opacity:0.72000002;color:#000000;fill:#000000;fill-opacity:1;fill-rule:nonzero;stroke:none;stroke-width:1;marker:none;visibility:visible;display:inline;overflow:visible;enable-background:accumulate" />
  <rect
     width="23"
     height="23.000017"
     rx="2"
     ry="2"
     x="0.5"
     y="0.49998263"
     id="rect3029"
     style="color:#000000;fill:url(#linearGradient7413);fill-opacity:1;fill-rule:nonzero;stroke:none;stroke-width:1;marker:none;visibility:visible;display:inline;overflow:visible;enable-background:accumulate" />
  <path
     d="m 9,12 4,0 0,-4 5,5.5 -5,5.5 0,-4 -4,0 0,-3"
     id="path9792-0-0"
     style="fill:#060606;fill-opacity:1;stroke:none;display:inline" />
  <path
     d="m 8,11 4,0 0,-4 5,5.5 -5,5.5 0,-4 -4,0 0,-3"
     id="path9792-9"
     style="fill:#bfbfbf;fill-opacity:1;stroke:none;display:inline" />
  <path
     d="M 2,0 C 0.90064862,0 0,0.9006 0,2 l 0,20 c 0,1.0994 0.90064862,2 2,2 l 20,0 c 1.099351,0 2,-0.9006 2,-2 L 24,2 C 24,0.9006 23.099351,0 22,0 z M 2.3,1 21.7,1 C 22.262649,1 23,1.7374 23,2.3 l 0,19.4 C 23,22.2626 22.262649,23 21.7,23 L 2.3,23 C 1.7373514,23 1,22.2626 1,21.7 L 1,2.3 C 1,1.7374 1.7373514,1 2.3,1 z"
     id="rect3029-96-0"
     style="font-size:medium;font-style:normal;font-variant:normal;font-weight:normal;font-stretch:normal;text-indent:0;text-align:start;text-decoration:none;line-height:normal;letter-spacing:normal;word-spacing:normal;text-transform:none;direction:ltr;block-progression:tb;writing-mode:lr-tb;text-anchor:start;baseline-shift:baseline;color:#000000;fill:#585858;fill-opacity:1;fill-rule:nonzero;stroke:none;stroke-width:1;marker:none;visibility:visible;display:inline;overflow:visible;enable-background:accumulate;font-family:Sans;-inkscape-font-specification:Sans" />
</svg>
